symbols/web/login/materialsymbolsrounded/login_grad200_24px.svg

<svg xmlns="http://www.w3.org/2000/svg" height="24" width="24"><path d="M8.275 17.025q-.4-.4-.387-.975.012-.575.412-.975l1.775-1.775H3.4q-.55 0-.937-.388-.388-.387-.388-.937t.388-.938q.387-.387.937-.387h6.675L8.25 8.825q-.4-.4-.387-.938.012-.537.412-.937.4-.4.95-.4.55 0 .95.4l4.125 4.125q.2.2.288.437.087.238.087.488t-.087.488q-.088.237-.288.437l-4.125 4.125q-.4.4-.95.388-.55-.013-.95-.413ZM13.45 21.5q-.55 0-.938-.387-.387-.388-.387-.938 0-.55.387-.937.388-.388.938-.388h5.825V5.15H13.45q-.55 0-.938-.388-.387-.387-.387-.937t.387-.938q.388-.387.938-.387h5.825q1.1 0 1.875.775.775.775.775 1.875v13.7q0 1.1-.775 1.875-.775.775-1.875.775Z"/></svg>

<svg xmlns="http://www.w3.org/2000/svg" height="24" width="24"><path d="M8.275 17.025Q7.875 16.625 7.888 16.05Q7.9 15.475 8.3 15.075L10.075 13.3H3.4Q2.85 13.3 2.463 12.912Q2.075 12.525 2.075 11.975Q2.075 11.425 2.463 11.037Q2.85 10.65 3.4 10.65H10.075L8.25 8.825Q7.85 8.425 7.863 7.887Q7.875 7.35 8.275 6.95Q8.675 6.55 9.225 6.55Q9.775 6.55 10.175 6.95L14.3 11.075Q14.5 11.275 14.588 11.512Q14.675 11.75 14.675 12Q14.675 12.25 14.588 12.488Q14.5 12.725 14.3 12.925L10.175 17.05Q9.775 17.45 9.225 17.438Q8.675 17.425 8.275 17.025ZM13.45 21.5Q12.9 21.5 12.512 21.113Q12.125 20.725 12.125 20.175Q12.125 19.625 12.512 19.238Q12.9 18.85 13.45 18.85H19.275Q19.275 18.85 19.275 18.85Q19.275 18.85 19.275 18.85V5.15Q19.275 5.15 19.275 5.15Q19.275 5.15 19.275 5.15H13.45Q12.9 5.15 12.512 4.762Q12.125 4.375 12.125 3.825Q12.125 3.275 12.512 2.887Q12.9 2.5 13.45 2.5H19.275Q20.375 2.5 21.15 3.275Q21.925 4.05 21.925 5.15V18.85Q21.925 19.95 21.15 20.725Q20.375 21.5 19.275 21.5Z"/></svg>
